icons/modern/womans-boot.svg

<svg width="32" height="32" viewBox="0 0 32 32" fill="none" xmlns="http://www.w3.org/2000/svg">
<g filter="url(#filter0_i_18_17374)">
<path d="M7.20312 23.9628H8.3611C10.4953 24.0469 10.8471 25.7344 11.0738 27.2812C11.2067 28.9453 12.3866 29.9531 14.0445 29.9531H29.0308C29.4453 29.9531 29.7812 29.6173 29.7812 29.2031V27.3008L10.5813 18.5156L5.70312 19.4468L6.22383 21.375H2.21875V29.4531C2.21875 29.7293 2.44261 29.9531 2.71875 29.9531H6.70312C6.97926 29.9531 7.20312 29.7293 7.20312 29.4531V23.9628Z" fill="url(#paint0_linear_18_17374)"/>
<path d="M7.20312 23.9628H8.3611C10.4953 24.0469 10.8471 25.7344 11.0738 27.2812C11.2067 28.9453 12.3866 29.9531 14.0445 29.9531H29.0308C29.4453 29.9531 29.7812 29.6173 29.7812 29.2031V27.3008L10.5813 18.5156L5.70312 19.4468L6.22383 21.375H2.21875V29.4531C2.21875 29.7293 2.44261 29.9531 2.71875 29.9531H6.70312C6.97926 29.9531 7.20312 29.7293 7.20312 29.4531V23.9628Z" fill="url(#paint1_linear_18_17374)"/>
<path d="M7.20312 23.9628H8.3611C10.4953 24.0469 10.8471 25.7344 11.0738 27.2812C11.2067 28.9453 12.3866 29.9531 14.0445 29.9531H29.0308C29.4453 29.9531 29.7812 29.6173 29.7812 29.2031V27.3008L10.5813 18.5156L5.70312 19.4468L6.22383 21.375H2.21875V29.4531C2.21875 29.7293 2.44261 29.9531 2.71875 29.9531H6.70312C6.97926 29.9531 7.20312 29.7293 7.20312 29.4531V23.9628Z" fill="url(#paint2_linear_18_17374)"/>
<path d="M7.20312 23.9628H8.3611C10.4953 24.0469 10.8471 25.7344 11.0738 27.2812C11.2067 28.9453 12.3866 29.9531 14.0445 29.9531H29.0308C29.4453 29.9531 29.7812 29.6173 29.7812 29.2031V27.3008L10.5813 18.5156L5.70312 19.4468L6.22383 21.375H2.21875V29.4531C2.21875 29.7293 2.44261 29.9531 2.71875 29.9531H6.70312C6.97926 29.9531 7.20312 29.7293 7.20312 29.4531V23.9628Z" fill="url(#paint3_linear_18_17374)"/>
</g>
<path d="M4.21875 2C3.11418 2 2.21875 2.89542 2.21875 4V21.375H9.97116C11.9891 21.375 13.625 23.0109 13.625 25.0288C13.625 26.2901 14.6474 27.3125 15.9087 27.3125H29.7812C29.6336 22.405 26.2021 21.566 24.1559 21.0657C23.9284 21.01 23.7181 20.9586 23.5312 20.9062C23.3848 20.8652 23.2424 20.8265 23.1033 20.7887C21.6301 20.3881 20.5303 20.089 19.0312 18.2188C17.9764 16.9027 17.9095 14.0022 17.9062 12.4633V4C17.9062 2.89542 17.0108 2 15.9062 2H4.21875Z" fill="url(#paint4_radial_18_17374)"/>
<path d="M4.21875 2C3.11418 2 2.21875 2.89542 2.21875 4V21.375H9.97116C11.9891 21.375 13.625 23.0109 13.625 25.0288C13.625 26.2901 14.6474 27.3125 15.9087 27.3125H29.7812C29.6336 22.405 26.2021 21.566 24.1559 21.0657C23.9284 21.01 23.7181 20.9586 23.5312 20.9062C23.3848 20.8652 23.2424 20.8265 23.1033 20.7887C21.6301 20.3881 20.5303 20.089 19.0312 18.2188C17.9764 16.9027 17.9095 14.0022 17.9062 12.4633V4C17.9062 2.89542 17.0108 2 15.9062 2H4.21875Z" fill="url(#paint5_radial_18_17374)"/>
<path d="M4.21875 2C3.11418 2 2.21875 2.89542 2.21875 4V21.375H9.97116C11.9891 21.375 13.625 23.0109 13.625 25.0288C13.625 26.2901 14.6474 27.3125 15.9087 27.3125H29.7812C29.6336 22.405 26.2021 21.566 24.1559 21.0657C23.9284 21.01 23.7181 20.9586 23.5312 20.9062C23.3848 20.8652 23.2424 20.8265 23.1033 20.7887C21.6301 20.3881 20.5303 20.089 19.0312 18.2188C17.9764 16.9027 17.9095 14.0022 17.9062 12.4633V4C17.9062 2.89542 17.0108 2 15.9062 2H4.21875Z" fill="url(#paint6_linear_18_17374)"/>
<path d="M4.21875 2C3.11418 2 2.21875 2.89542 2.21875 4V21.375H9.97116C11.9891 21.375 13.625 23.0109 13.625 25.0288C13.625 26.2901 14.6474 27.3125 15.9087 27.3125H29.7812C29.6336 22.405 26.2021 21.566 24.1559 21.0657C23.9284 21.01 23.7181 20.9586 23.5312 20.9062C23.3848 20.8652 23.2424 20.8265 23.1033 20.7887C21.6301 20.3881 20.5303 20.089 19.0312 18.2188C17.9764 16.9027 17.9095 14.0022 17.9062 12.4633V4C17.9062 2.89542 17.0108 2 15.9062 2H4.21875Z" fill="url(#paint7_linear_18_17374)"/>
<path d="M4.21875 2C3.11418 2 2.21875 2.89542 2.21875 4V21.375H9.97116C11.9891 21.375 13.625 23.0109 13.625 25.0288C13.625 26.2901 14.6474 27.3125 15.9087 27.3125H29.7812C29.6336 22.405 26.2021 21.566 24.1559 21.0657C23.9284 21.01 23.7181 20.9586 23.5312 20.9062C23.3848 20.8652 23.2424 20.8265 23.1033 20.7887C21.6301 20.3881 20.5303 20.089 19.0312 18.2188C17.9764 16.9027 17.9095 14.0022 17.9062 12.4633V4C17.9062 2.89542 17.0108 2 15.9062 2H4.21875Z" fill="url(#paint8_radial_18_17374)"/>
<path d="M4.21875 2C3.11418 2 2.21875 2.89542 2.21875 4V21.375H9.97116C11.9891 21.375 13.625 23.0109 13.625 25.0288C13.625 26.2901 14.6474 27.3125 15.9087 27.3125H29.7812C29.6336 22.405 26.2021 21.566 24.1559 21.0657C23.9284 21.01 23.7181 20.9586 23.5312 20.9062C23.3848 20.8652 23.2424 20.8265 23.1033 20.7887C21.6301 20.3881 20.5303 20.089 19.0312 18.2188C17.9764 16.9027 17.9095 14.0022 17.9062 12.4633V4C17.9062 2.89542 17.0108 2 15.9062 2H4.21875Z" fill="url(#paint9_radial_18_17374)"/>
<g filter="url(#filter1_f_18_17374)">
<path d="M7.78125 3.1875V14.1609C7.78125 14.6847 7.31954 15.1094 6.75 15.1094C6.18046 15.1094 5.71875 14.6847 5.71875 14.1609V3.1875H7.78125Z" fill="#CF2942"/>
</g>
<g filter="url(#filter2_i_18_17374)">
<path d="M8.09375 2V13.75C8.09375 14.3109 7.63904 14.7656 7.07812 14.7656C6.51721 14.7656 6.0625 14.3109 6.0625 13.75V2H8.09375Z" fill="url(#paint10_linear_18_17374)"/>
<path d="M8.09375 2V13.75C8.09375 14.3109 7.63904 14.7656 7.07812 14.7656C6.51721 14.7656 6.0625 14.3109 6.0625 13.75V2H8.09375Z" fill="url(#paint11_linear_18_17374)"/>
</g>
<defs>
<filter id="filter0_i_18_17374" x="2.21875" y="18.4156" width="27.6625" height="11.5375" filterUnits="userSpaceOnUse" color-interpolation-filters="sRGB">
<feFlood flood-opacity="0" result="BackgroundImageFix"/>
<feBlend mode="normal" in="SourceGraphic" in2="BackgroundImageFix" result="shape"/>
<feColorMatrix in="SourceAlpha" type="matrix" values="0 0 0 0 0 0 0 0 0 0 0 0 0 0 0 0 0 0 127 0" result="hardAlpha"/>
<feOffset dx="0.1" dy="-0.1"/>
<feGaussianBlur stdDeviation="0.05"/>
<feComposite in2="hardAlpha" operator="arithmetic" k2="-1" k3="1"/>
<feColorMatrix type="matrix" values="0 0 0 0 0.894118 0 0 0 0 0.584314 0 0 0 0 0.447059 0 0 0 1 0"/>
<feBlend mode="normal" in2="shape" result="effect1_innerShadow_18_17374"/>
</filter>
<filter id="filter1_f_18_17374" x="4.21875" y="1.6875" width="5.0625" height="14.9219" filterUnits="userSpaceOnUse" color-interpolation-filters="sRGB">
<feFlood flood-opacity="0" result="BackgroundImageFix"/>
<feBlend mode="normal" in="SourceGraphic" in2="BackgroundImageFix" result="shape"/>
<feGaussianBlur stdDeviation="0.75" result="effect1_foregroundBlur_18_17374"/>
</filter>
<filter id="filter2_i_18_17374" x="5.9625" y="2" width="2.13125" height="12.7656" filterUnits="userSpaceOnUse" color-interpolation-filters="sRGB">
<feFlood flood-opacity="0" result="BackgroundImageFix"/>
<feBlend mode="normal" in="SourceGraphic" in2="BackgroundImageFix" result="shape"/>
<feColorMatrix in="SourceAlpha" type="matrix" values="0 0 0 0 0 0 0 0 0 0 0 0 0 0 0 0 0 0 127 0" result="hardAlpha"/>
<feOffset dx="-0.1"/>
<feGaussianBlur stdDeviation="0.125"/>
<feComposite in2="hardAlpha" operator="arithmetic" k2="-1" k3="1"/>
<feColorMatrix type="matrix" values="0 0 0 0 1 0 0 0 0 0.894118 0 0 0 0 0.619608 0 0 0 1 0"/>
<feBlend mode="normal" in2="shape" result="effect1_innerShadow_18_17374"/>
</filter>
<linearGradient id="paint0_linear_18_17374" x1="5" y1="26.8125" x2="26.25" y2="27.125" gradientUnits="userSpaceOnUse">
<stop stop-color="#F0A773"/>
<stop offset="1" stop-color="#FFBD8C"/>
</linearGradient>
<linearGradient id="paint1_linear_18_17374" x1="29.7813" y1="29.9531" x2="18.625" y2="29.9531" gradientUnits="userSpaceOnUse">
<stop stop-color="#FFD890"/>
<stop offset="1" stop-color="#FFD890" stop-opacity="0"/>
</linearGradient>
<linearGradient id="paint2_linear_18_17374" x1="29.7812" y1="29.6875" x2="28.8125" y2="29.6875" gradientUnits="userSpaceOnUse">
<stop stop-color="#FFD08A"/>
<stop offset="1" stop-color="#FFD08A" stop-opacity="0"/>
</linearGradient>
<linearGradient id="paint3_linear_18_17374" x1="1.96875" y1="26.0312" x2="7.125" y2="26.0312" gradientUnits="userSpaceOnUse">
<stop stop-color="#CA9567"/>
<stop offset="1" stop-color="#CA9567" stop-opacity="0"/>
</linearGradient>
<radialGradient id="paint4_radial_18_17374" cx="0" cy="0" r="1" gradientUnits="userSpaceOnUse" gradientTransform="translate(23.1875 13.6875) rotate(133.813) scale(17.0626 22.0729)">
<stop offset="0.321253" stop-color="#FF5C85"/>
<stop offset="1" stop-color="#EB305F"/>
</radialGradient>
<radialGradient id="paint5_radial_18_17374" cx="0" cy="0" r="1" gradientUnits="userSpaceOnUse" gradientTransform="translate(18.0625 3.5625) rotate(-180) scale(8.75 2.135)">
<stop offset="0.142857" stop-color="#FF5A80"/>
<stop offset="1" stop-color="#FF5A80" stop-opacity="0"/>
</radialGradient>
<linearGradient id="paint6_linear_18_17374" x1="16" y1="2" x2="16" y2="3.6875" gradientUnits="userSpaceOnUse">
<stop stop-color="#EA3B5B"/>
<stop offset="1" stop-color="#EA3B5B" stop-opacity="0"/>
</linearGradient>
<linearGradient id="paint7_linear_18_17374" x1="1.75" y1="17.375" x2="8" y2="17.375" gradientUnits="userSpaceOnUse">
<stop stop-color="#CB3842"/>
<stop offset="1" stop-color="#CB3842" stop-opacity="0"/>
</linearGradient>
<radialGradient id="paint8_radial_18_17374" cx="0" cy="0" r="1" gradientUnits="userSpaceOnUse" gradientTransform="translate(29.7812 25.9375) rotate(180) scale(9.15625 8.4375)">
<stop stop-color="#FF5EA4"/>
<stop offset="1" stop-color="#FF5EA4" stop-opacity="0"/>
</radialGradient>
<radialGradient id="paint9_radial_18_17374" cx="0" cy="0" r="1" gradientUnits="userSpaceOnUse" gradientTransform="translate(24.125 20) rotate(109.855) scale(2.39221 4.55741)">
<stop offset="0.128954" stop-color="#F43D76"/>
<stop offset="1" stop-color="#F43D76" stop-opacity="0"/>
</radialGradient>
<linearGradient id="paint10_linear_18_17374" x1="7.07812" y1="2" x2="8.78125" y2="11.1562" gradientUnits="userSpaceOnUse">
<stop stop-color="#F1AC67"/>
<stop offset="1" stop-color="#FAB27E"/>
</linearGradient>
<linearGradient id="paint11_linear_18_17374" x1="5.40625" y1="3.71875" x2="7.34375" y2="3.75" gradientUnits="userSpaceOnUse">
<stop offset="0.297688" stop-color="#E29F5D"/>
<stop offset="1" stop-color="#E29F5D" stop-opacity="0"/>
</linearGradient>
</defs>
</svg>

<svg width="32" height="32" fill="none" xmlns="http://www.w3.org/2000/svg"><g filter="url(#a)"><path d="M7.203 23.963h1.158c2.134.084 2.486 1.771 2.713 3.318.133 1.664 1.313 2.672 2.97 2.672h14.987a.75.75 0 0 0 .75-.75v-1.902l-19.2-8.785-4.878.93.52 1.929H2.22v8.078a.5.5 0 0 0 .5.5h3.984a.5.5 0 0 0 .5-.5v-5.49Z" fill="url(#b)"/><path d="M7.203 23.963h1.158c2.134.084 2.486 1.771 2.713 3.318.133 1.664 1.313 2.672 2.97 2.672h14.987a.75.75 0 0 0 .75-.75v-1.902l-19.2-8.785-4.878.93.52 1.929H2.22v8.078a.5.5 0 0 0 .5.5h3.984a.5.5 0 0 0 .5-.5v-5.49Z" fill="url(#c)"/><path d="M7.203 23.963h1.158c2.134.084 2.486 1.771 2.713 3.318.133 1.664 1.313 2.672 2.97 2.672h14.987a.75.75 0 0 0 .75-.75v-1.902l-19.2-8.785-4.878.93.52 1.929H2.22v8.078a.5.5 0 0 0 .5.5h3.984a.5.5 0 0 0 .5-.5v-5.49Z" fill="url(#d)"/><path d="M7.203 23.963h1.158c2.134.084 2.486 1.771 2.713 3.318.133 1.664 1.313 2.672 2.97 2.672h14.987a.75.75 0 0 0 .75-.75v-1.902l-19.2-8.785-4.878.93.52 1.929H2.22v8.078a.5.5 0 0 0 .5.5h3.984a.5.5 0 0 0 .5-.5v-5.49Z" fill="url(#e)"/></g><path d="M4.219 2a2 2 0 0 0-2 2v17.375H9.97a3.654 3.654 0 0 1 3.654 3.654 2.284 2.284 0 0 0 2.284 2.284H29.78c-.147-4.908-3.579-5.747-5.625-6.247-.228-.056-.438-.107-.625-.16l-.428-.117c-1.473-.4-2.573-.7-4.072-2.57-1.055-1.316-1.121-4.217-1.125-5.756V4a2 2 0 0 0-2-2H4.22Z" fill="url(#f)"/><path d="M4.219 2a2 2 0 0 0-2 2v17.375H9.97a3.654 3.654 0 0 1 3.654 3.654 2.284 2.284 0 0 0 2.284 2.284H29.78c-.147-4.908-3.579-5.747-5.625-6.247-.228-.056-.438-.107-.625-.16l-.428-.117c-1.473-.4-2.573-.7-4.072-2.57-1.055-1.316-1.121-4.217-1.125-5.756V4a2 2 0 0 0-2-2H4.22Z" fill="url(#g)"/><path d="M4.219 2a2 2 0 0 0-2 2v17.375H9.97a3.654 3.654 0 0 1 3.654 3.654 2.284 2.284 0 0 0 2.284 2.284H29.78c-.147-4.908-3.579-5.747-5.625-6.247-.228-.056-.438-.107-.625-.16l-.428-.117c-1.473-.4-2.573-.7-4.072-2.57-1.055-1.316-1.121-4.217-1.125-5.756V4a2 2 0 0 0-2-2H4.22Z" fill="url(#h)"/><path d="M4.219 2a2 2 0 0 0-2 2v17.375H9.97a3.654 3.654 0 0 1 3.654 3.654 2.284 2.284 0 0 0 2.284 2.284H29.78c-.147-4.908-3.579-5.747-5.625-6.247-.228-.056-.438-.107-.625-.16l-.428-.117c-1.473-.4-2.573-.7-4.072-2.57-1.055-1.316-1.121-4.217-1.125-5.756V4a2 2 0 0 0-2-2H4.22Z" fill="url(#i)"/><path d="M4.219 2a2 2 0 0 0-2 2v17.375H9.97a3.654 3.654 0 0 1 3.654 3.654 2.284 2.284 0 0 0 2.284 2.284H29.78c-.147-4.908-3.579-5.747-5.625-6.247-.228-.056-.438-.107-.625-.16l-.428-.117c-1.473-.4-2.573-.7-4.072-2.57-1.055-1.316-1.121-4.217-1.125-5.756V4a2 2 0 0 0-2-2H4.22Z" fill="url(#j)"/><path d="M4.219 2a2 2 0 0 0-2 2v17.375H9.97a3.654 3.654 0 0 1 3.654 3.654 2.284 2.284 0 0 0 2.284 2.284H29.78c-.147-4.908-3.579-5.747-5.625-6.247-.228-.056-.438-.107-.625-.16l-.428-.117c-1.473-.4-2.573-.7-4.072-2.57-1.055-1.316-1.121-4.217-1.125-5.756V4a2 2 0 0 0-2-2H4.22Z" fill="url(#k)"/><g filter="url(#l)"><path d="M7.781 3.188V14.16c0 .524-.461.948-1.031.948-.57 0-1.031-.424-1.031-.948V3.188H7.78Z" fill="#CF2942"/></g><g filter="url(#m)"><path d="M8.094 2v11.75a1.016 1.016 0 0 1-2.031 0V2h2.03Z" fill="url(#n)"/><path d="M8.094 2v11.75a1.016 1.016 0 0 1-2.031 0V2h2.03Z" fill="url(#o)"/></g><defs><linearGradient id="b" x1="5" y1="26.813" x2="26.25" y2="27.125" gradientUnits="userSpaceOnUse"><stop stop-color="#F0A773"/><stop offset="1" stop-color="#FFBD8C"/></linearGradient><linearGradient id="c" x1="29.781" y1="29.953" x2="18.625" y2="29.953" gradientUnits="userSpaceOnUse"><stop stop-color="#FFD890"/><stop offset="1" stop-color="#FFD890" stop-opacity="0"/></linearGradient><linearGradient id="d" x1="29.781" y1="29.688" x2="28.813" y2="29.688" gradientUnits="userSpaceOnUse"><stop stop-color="#FFD08A"/><stop offset="1" stop-color="#FFD08A" stop-opacity="0"/></linearGradient><linearGradient id="e" x1="1.969" y1="26.031" x2="7.125" y2="26.031" gradientUnits="userSpaceOnUse"><stop stop-color="#CA9567"/><stop offset="1" stop-color="#CA9567" stop-opacity="0"/></linearGradient><linearGradient id="h" x1="16" y1="2" x2="16" y2="3.688" gradientUnits="userSpaceOnUse"><stop stop-color="#EA3B5B"/><stop offset="1" stop-color="#EA3B5B" stop-opacity="0"/></linearGradient><linearGradient id="i" x1="1.75" y1="17.375" x2="8" y2="17.375" gradientUnits="userSpaceOnUse"><stop stop-color="#CB3842"/><stop offset="1" stop-color="#CB3842" stop-opacity="0"/></linearGradient><linearGradient id="n" x1="7.078" y1="2" x2="8.781" y2="11.156" gradientUnits="userSpaceOnUse"><stop stop-color="#F1AC67"/><stop offset="1" stop-color="#FAB27E"/></linearGradient><linearGradient id="o" x1="5.406" y1="3.719" x2="7.344" y2="3.75" gradientUnits="userSpaceOnUse"><stop offset=".298" stop-color="#E29F5D"/><stop offset="1" stop-color="#E29F5D" stop-opacity="0"/></linearGradient><radialGradient id="f" cx="0" cy="0" r="1" gradientUnits="userSpaceOnUse" gradientTransform="rotate(133.813 8.676 11.787) scale(17.0626 22.0729)"><stop offset=".321" stop-color="#FF5C85"/><stop offset="1" stop-color="#EB305F"/></radialGradient><radialGradient id="g" cx="0" cy="0" r="1" gradientUnits="userSpaceOnUse" gradientTransform="matrix(-8.75 0 0 -2.135 18.063 3.563)"><stop offset=".143" stop-color="#FF5A80"/><stop offset="1" stop-color="#FF5A80" stop-opacity="0"/></radialGradient><radialGradient id="j" cx="0" cy="0" r="1" gradientUnits="userSpaceOnUse" gradientTransform="matrix(-9.15625 0 0 -8.4375 29.781 25.938)"><stop stop-color="#FF5EA4"/><stop offset="1" stop-color="#FF5EA4" stop-opacity="0"/></radialGradient><radialGradient id="k" cx="0" cy="0" r="1" gradientUnits="userSpaceOnUse" gradientTransform="matrix(-.8125 2.25 -4.2865 -1.54788 24.125 20)"><stop offset=".129" stop-color="#F43D76"/><stop offset="1" stop-color="#F43D76" stop-opacity="0"/></radialGradient><filter id="a" x="2.219" y="18.416" width="27.663" height="11.537" filterUnits="userSpaceOnUse" color-interpolation-filters="sRGB"><feFlood flood-opacity="0" result="BackgroundImageFix"/><feBlend in="SourceGraphic" in2="BackgroundImageFix" result="shape"/><feColorMatrix in="SourceAlpha" values="0 0 0 0 0 0 0 0 0 0 0 0 0 0 0 0 0 0 127 0" result="hardAlpha"/><feOffset dx=".1" dy="-.1"/><feGaussianBlur stdDeviation=".05"/><feComposite in2="hardAlpha" operator="arithmetic" k2="-1" k3="1"/><feColorMatrix values="0 0 0 0 0.894118 0 0 0 0 0.584314 0 0 0 0 0.447059 0 0 0 1 0"/><feBlend in2="shape" result="effect1_innerShadow_18_17374"/></filter><filter id="l" x="4.219" y="1.688" width="5.063" height="14.922" filterUnits="userSpaceOnUse" color-interpolation-filters="sRGB"><feFlood flood-opacity="0" result="BackgroundImageFix"/><feBlend in="SourceGraphic" in2="BackgroundImageFix" result="shape"/><feGaussianBlur stdDeviation=".75" result="effect1_foregroundBlur_18_17374"/></filter><filter id="m" x="5.963" y="2" width="2.131" height="12.766" filterUnits="userSpaceOnUse" color-interpolation-filters="sRGB"><feFlood flood-opacity="0" result="BackgroundImageFix"/><feBlend in="SourceGraphic" in2="BackgroundImageFix" result="shape"/><feColorMatrix in="SourceAlpha" values="0 0 0 0 0 0 0 0 0 0 0 0 0 0 0 0 0 0 127 0" result="hardAlpha"/><feOffset dx="-.1"/><feGaussianBlur stdDeviation=".125"/><feComposite in2="hardAlpha" operator="arithmetic" k2="-1" k3="1"/><feColorMatrix values="0 0 0 0 1 0 0 0 0 0.894118 0 0 0 0 0.619608 0 0 0 1 0"/><feBlend in2="shape" result="effect1_innerShadow_18_17374"/></filter></defs></svg>
